demos/barber/images/icons/comb.svg

<?xml version="1.0" encoding="UTF-8" standalone="no"?><!DOCTYPE svg PUBLIC "-//W3C//DTD SVG 1.1//EN" "http://www.w3.org/Graphics/SVG/1.1/DTD/svg11.dtd"><svg width="100%" height="100%" viewBox="0 0 69 58" version="1.1" xmlns="http://www.w3.org/2000/svg" xmlns:xlink="http://www.w3.org/1999/xlink" xml:space="preserve" style="fill-rule:evenodd;clip-rule:evenodd;stroke-linejoin:round;stroke-miterlimit:1.41421;"><path id="__1" d="M68.07,15l-9.17,-9.19l0.1,-0.09l-4.21,-4.72c-2.79,-2.26 -5.93,0 -5.93,0c0,0 -41.37,41 -43.47,43.39c-2.1,2.39 -8.73,9.85 -3.32,12.3c5.41,2.45 14.15,-3.69 18.34,-13.61c2.165,-5.446 6.695,-9.619 12.3,-11.33l9.29,9.25c0.265,0.265 0.625,0.414 1,0.414c0.776,0 1.414,-0.638 1.414,-1.414c0,-0.375 -0.149,-0.735 -0.414,-1l-9,-9l2,-2l9,9c0.265,0.265 0.625,0.414 1,0.414c0.776,0 1.414,-0.638 1.414,-1.414c0,-0.375 -0.149,-0.735 -0.414,-1l-9,-9l2,-2l9,9c0.265,0.265 0.625,0.414 1,0.414c0.776,0 1.414,-0.638 1.414,-1.414c0,-0.375 -0.149,-0.735 -0.414,-1l-9.06,-9l2,-2.05l9.06,9.05c0.265,0.265 0.625,0.414 1,0.414c0.776,0 1.414,-0.638 1.414,-1.414c0,-0.375 -0.149,-0.735 -0.414,-1l-9.09,-9.09l2,-2.05l9.15,9.14c0.265,0.265 0.625,0.414 1,0.414c0.776,0 1.414,-0.638 1.414,-1.414c0,-0.375 -0.149,-0.735 -0.414,-1l-9.12,-9.12l2,-2.05l9.14,9.17c0.265,0.265 0.625,0.414 1,0.414c0.776,0 1.414,-0.638 1.414,-1.414c0,-0.375 -0.149,-0.735 -0.414,-1l-9.17,-9.15l2,-2.05l9.18,9.2c0.265,0.265 0.625,0.414 1,0.414c0.776,0 1.414,-0.638 1.414,-1.414c0,-0.375 -0.149,-0.735 -0.414,-1l-0.02,0Z" style="fill:#005a76;fill-rule:nonzero;"/></svg>

<svg xmlns="http://www.w3.org/2000/svg" viewBox="0 0 68.48 57.23"><defs><style>.cls-1{fill:#bd9254;}</style></defs><title>comb</title><g id="Layer_2" data-name="Layer 2"><g id="_1" data-name=" 1"><path class="cls-1" d="M68.07,15,58.9,5.81,59,5.72,54.79,1C52-1.26,48.86,1,48.86,1S7.49,42,5.39,44.39s-8.73,9.85-3.32,12.3S16.22,53,20.41,43.08a19.3,19.3,0,0,1,12.3-11.33L42,41a1.4,1.4,0,0,0,2-2l-9-9L37,28l9,9a1.4,1.4,0,0,0,2-2l-9-9L41,24,50,33a1.4,1.4,0,1,0,2-2L42.94,22l2-2.05L54,29a1.4,1.4,0,0,0,2-2l-9.09-9.09,2-2.05L58.06,25a1.4,1.4,0,1,0,2-2l-9.12-9.12,2-2.05L62.08,21a1.4,1.4,0,0,0,2-2L54.91,9.85l2-2.05L66.09,17a1.4,1.4,0,0,0,2-2Z"/></g></g></svg>
